X: 352
T:Gorman's
M:C|
L:1/8
R:reel
D:Matt Molloy and Sen Keane: Contentment Is Wealth
Z:Devin McCabe
K:D
A3B defa|agfd efdB|A/2A/2A AB defe|1dBAF EFDF:|2dBAF EFD2||
!~a3f def~a-|a2fd efdf|~a3f defe|dBAF EFD2|
!~a3f def~a-|a2fd efdB|A/2A/2A AB defe|dBAF EFDF||
